X:14
T:Abergele
M:3/2
L:1/2
Q:220
C:J. A. Lloyd 1815 - 74
R:Hymn
K:G
D E F | G2 G | B2 A | G3 | G F G | A2 A | B3 | B c B|
| B A G | G F E | D2 D| D2 D|E2 D|D3||
